X:1
T:[ID 1-138b]
T:[ID 1-138b]
T:Bezeichnung standardisiert: Englische Reverentz; Engelische reverentz
T:Urheber unbekannt Datum in der hier transkribierten schriftlichen Quelle: vermutlich vor 1767
C:Urheber unbekannt
C:Datum in der hier transkribierten schriftlichen Quelle: vermutlich vor 1767
L:1/8
M:2/4
K:G
V:1 treble 
V:1
 G2 A2 | B2 e2 | dc/B/ AG | F/G/A/F/ D2 | G2 A2 | B2 d2 | ^cdec | d3 :: d | e^def | g2 f2 | egfe | %12
 ^d2 B2 | e=dcB | A2 d2 | BA/G/ AG/F/ | G2 G,2 :| %17

